X: 15
T: the Lawyer's Fee
%C: Mr. Gray
%R: reel
B: Mr. Gray "24 Country Dances for the Year 1803" p.8 #2
S: http://imslp.org/wiki/24_Country_Dances_for_the_Year_1803_(Various)  2013-12-2
Z: 2013 John Chambers <jc:trillian.mit.edu>
M: 2/4
L: 1/16
K: G
|:\
G2BG dGBG | ecAg gfed |\
gbfa egdB | cedB G2G2 :|
|:\
D2FD AFcA | ecAG GFED |\
D2FD Gdec | BdDF G2G2 :|
% - - - - - - - - - - - - - - - - - - - - - - - - -
%%begintext align
%% 1st Lady set to the 2d Gen: & turn the 3d
%% lead down the middle up again & Allemand.
%%endtext
